images/attr.svg

<svg height="250" viewBox="0 0 250 250" width="250" xmlns="http://www.w3.org/2000/svg" xmlns:xlink="http://www.w3.org/1999/xlink"><linearGradient id="a" gradientUnits="userSpaceOnUse" x1="11.3315452486" x2="209.5616464073" y1="224.16341858208" y2="93.53578633751"><stop offset="0" stop-color="#7754ab"/><stop offset="1" stop-color="#fe6c77"/></linearGradient><path d="m249.980469 189.816406c-.25-7.96875-2.332031-15.472656-5.84375-22.109375-.019531-.039062-.039063-.054687-.058594-.09375l-.828125-1.488281c0-.019531-.019531-.019531-.019531-.035156 0-.019532-.019531-.039063-.019531-.039063 0-.019531-.019532-.019531-.019532-.039062l-2.046875-3.703125-.636719-1.160156-3.105468-5.613282-1.621094-2.910156-4.722656-8.527344-3.105469-5.613281-2.703125-4.863281-1.582031-2.871094s0 0 0-.019531c0 0-.019531-.019531-.019531-.019531-.460938-.773438-.945313-1.523438-1.445313-2.277344-1.332031-1.96875-2.777344-3.839844-4.359375-5.613282-2.835938-3.164062-6.058594-6-9.605469-8.371093-1.660156-1.121094-3.394531-2.140625-5.191406-3.066407-3.742187-1.929687-7.773437-3.398437-11.976563-4.34375-2.277343-.519531-4.613281-.886718-7.003906-1.078124-1.425781-.117188-2.855468-.175782-4.300781-.175782h-84.296875l-1.3125 2.355469-1.796875 3.261719-6.324219 11.4375-3.105468 5.613281h35.859374l-3.492187 6.308594-2.0625 3.722656h-35.882813l-3.105468 5.613281-.925782 1.679688-2.71875 4.917968-2.679687 4.839844-2.855469 5.152344c.328125.152344.636719.289062.945313.441406h34.683593l-4.128906 7.464844-3.394531 6.136719-8.101563 14.640625-8.644531 15.585937c-.230469.445313-.480469.886719-.730469 1.332031-4.957031 8.410157-14.121093 14.042969-24.613281 14.023438-4.035156 0-7.851562-.828125-11.324219-2.351562-1.738281-.753907-3.375-1.660157-4.902343-2.722657-7.464844-5.148437-12.34375-13.734375-12.324219-23.476562.019531-4.878907 1.253906-9.488281 3.453125-13.519531.058594-.097657.097656-.175782.152344-.273438l9.046875-16.355469.253906-.464843 3.105469-5.613282 4.761719-8.621094 1.5625-2.816406 1.796874-3.222656 1.308594-2.390625 5.558594-10.050781 3.105469-5.613282 6.328125-11.4375 3.105468-5.597656 13.40625-24.148437.039063-.058594 3.160156-5.730469.175781-.308594 6.367188-11.496093 1.886719-3.394531 1.3125-2.371094 7.503906-13.542969s0-.019531.019531-.019531c.078125-.15625.175782-.328125.269532-.484375.039062-.054688.078124-.132813.117187-.191407 4.917969-8.566406 14.179687-14.3125 24.769531-14.292968 3.992188.019531 7.773438.828125 11.226563 2.3125 1.734375.734375 3.375 1.660156 4.898437 2.722656 3.703125 2.546875 6.769532 5.960938 8.933594 9.914062l7.519531 13.582032 1.410157 2.542968 1.792968 3.222657 6.210938 11.226562.328125.578125 3.050781 5.5.152344.269532 7.5625 13.65625 3.007812 5.441406c2.277344.058594 4.515625.25 6.714844.558594 5.378906.769531 10.511719 2.316406 15.277344 4.511718h.289062l.097656.175782c3.238282 1.523437 6.324219 3.335937 9.199219 5.421874h.210938l-3.105469-5.597656-2.121094-3.835937-24.226562-43.671875-3.203125-5.789063-6.539063-11.785156-3.203125-5.789063-.019531.039063c-.210938-.441406-.441406-.867187-.675781-1.292969-.09375-.171875-.191407-.367187-.289063-.539062-3.894531-6.945313-9.394531-12.867188-15.992187-17.304688-.460938-.308594-.925781-.617187-1.40625-.90625-1.582031-.984375-3.222657-1.890625-4.898438-2.699218-3.414062-1.640626-7.0625-2.933594-10.863281-3.78125-2.273438-.519532-4.609375-.867188-7-1.082032-1.484375-.113281-2.972656-.191406-4.476562-.171875-1.464844 0-2.914063.058594-4.339844.191407-2.390625.214843-4.726563.582031-7.023438 1.101562-6.25 1.425781-12.054687 3.992188-17.1875 7.464844-7.117187 4.804687-12.960937 11.34375-16.914062 19.039062l-.019532-.058594-3.203124 5.789063-6.539063 11.804687-3.183594 5.769532-26.3125 47.507812-3.105469 5.597656-6.328124 11.4375-3.105469 5.613282-5.554688 10.050781-3.125 5.613281-6.328125 11.4375-3.105468 5.613282-3.105469 5.632812c-.113281.195312-.210938.386719-.328125.578125-3.683594 6.734375-5.882813 14.429687-6.1328128 22.589844-.0195312.597656-.0195312 1.214843-.0195312 1.8125.0195312 5.847656 1.023438 11.480469 2.855469 16.707031.789062 2.257812 1.714843 4.4375 2.796875 6.519531 4.203125 8.199219 10.550781 15.105469 18.285156 19.984375 1.582031 1.003906 3.203125 1.910156 4.902344 2.71875 6.730468 3.28125 14.273437 5.113282 22.257812 5.152344 1.507813 0 2.992188-.058594 4.457032-.175781 2.394531-.191407 4.707031-.558594 6.984374-1.058594 6.230469-1.390625 12.015626-3.917969 17.148438-7.371094 6.386719-4.28125 11.746094-9.992187 15.644531-16.664062.019531-.039063.039063-.078125.058594-.117188.019531-.019531.019531-.039062.039063-.058593l.90625-1.617188c0-.019531.019531-.019531.019531-.039062l23.839843-43.09375 4.03125-7.292969.8125-1.449219 20.988282 37.867188 5.4375 9.839843c.136718.078125.269531.152344.40625.210938.617187 1.464843 1.3125 2.875 2.0625 4.265625.117187.210937.234375.421875.367187.632812 3.898438 6.90625 9.375 12.828125 15.953125 17.246094 5.132813 3.453125 10.9375 6 17.167969 7.410156 2.277344.519532 4.609375.886719 7.003906 1.078125 1.484375.136719 2.96875.195313 4.492188.195313 19.832031-.019532 36.980469-11.304688 45.449219-27.800782 1.082031-2.082031 2.007812-4.261718 2.796874-6.519531 1.832032-5.246093 2.816407-10.878906 2.835938-16.742187 0-.597656 0-1.195313-.019531-1.773438zm-51.0625 30.324219c-10.839844.015625-20.273438-6-25.09375-14.894531l-1.96875-3.566406-6.90625-12.445313-1.273438-2.3125-6.847656-12.386719-3.355469-6.054687-4.070312-7.351563-9.894532-17.859375c-.945312-1.699219-.945312-3.78125 0-5.480469l3.238282-5.863281c1.195312-2.140625 3.453125-3.472656 5.902344-3.472656h32.5625c9.433593 0 18.132812 5.132813 22.703124 13.386719l1.253907 2.257812.773437 1.386719.714844 1.273437 4.859375 8.777344 2.21875 4.011719.886719 1.582031.15625.273438 7.078125 12.769531 2.121093 3.835937c2.199219 4.03125 3.472657 8.664063 3.492188 13.5625.097656 15.777344-12.789062 28.53125-28.550781 28.570313zm0 0" fill="url(#a)"/></svg>

<!-- Generator: Adobe Illustrator 26.0.1, SVG Export Plug-In . SVG Version: 6.00 Build 0)  -->
<svg xmlns="http://www.w3.org/2000/svg" xmlns:xlink="http://www.w3.org/1999/xlink" width="250px" height="250px" viewBox="0 0 250 250" version="1.1">
<defs>
<linearGradient id="linear0" gradientUnits="userSpaceOnUse" x1="58.742802" y1="1162.064575" x2="1086.368896" y2="484.890106" gradientTransform="matrix(0.192901,0,0,0.192901,0,0)">
<stop offset="0" style="stop-color:rgb(46.666667%,32.941177%,67.058825%);stop-opacity:1;"/>
<stop offset="1" style="stop-color:rgb(99.607843%,42.352942%,46.666667%);stop-opacity:1;"/>
</linearGradient>
</defs>
<g id="surface1">
<path style=" stroke:none;fill-rule:nonzero;fill:url(#linear0);" d="M 249.980469 189.816406 C 249.730469 181.847656 247.648438 174.34375 244.136719 167.707031 C 244.117188 167.667969 244.097656 167.652344 244.078125 167.613281 L 243.25 166.125 C 243.25 166.105469 243.230469 166.105469 243.230469 166.089844 C 243.230469 166.070312 243.210938 166.050781 243.210938 166.050781 C 243.210938 166.03125 243.191406 166.03125 243.191406 166.011719 L 241.144531 162.308594 L 240.507812 161.148438 L 237.402344 155.535156 L 235.78125 152.625 L 231.058594 144.097656 L 227.953125 138.484375 L 225.25 133.621094 L 223.667969 130.75 C 223.667969 130.75 223.667969 130.75 223.667969 130.730469 C 223.667969 130.730469 223.648438 130.710938 223.648438 130.710938 C 223.1875 129.9375 222.703125 129.1875 222.203125 128.433594 C 220.871094 126.464844 219.425781 124.59375 217.84375 122.820312 C 215.007812 119.65625 211.785156 116.820312 208.238281 114.449219 C 206.578125 113.328125 204.84375 112.308594 203.046875 111.382812 C 199.304688 109.453125 195.273438 107.984375 191.070312 107.039062 C 188.792969 106.519531 186.457031 106.152344 184.066406 105.960938 C 182.640625 105.84375 181.210938 105.785156 179.765625 105.785156 L 95.46875 105.785156 L 94.15625 108.140625 L 92.359375 111.402344 L 86.035156 122.839844 L 82.929688 128.453125 L 118.789062 128.453125 L 115.296875 134.761719 L 113.234375 138.484375 L 77.351562 138.484375 L 74.246094 144.097656 L 73.320312 145.777344 L 70.601562 150.695312 L 67.921875 155.535156 L 65.066406 160.6875 C 65.394531 160.839844 65.703125 160.976562 66.011719 161.128906 L 100.695312 161.128906 L 96.566406 168.59375 L 93.171875 174.730469 L 85.070312 189.371094 L 76.425781 204.957031 C 76.195312 205.402344 75.945312 205.84375 75.695312 206.289062 C 70.738281 214.699219 61.574219 220.332031 51.082031 220.3125 C 47.046875 220.3125 43.230469 219.484375 39.757812 217.960938 C 38.019531 217.207031 36.382812 216.300781 34.855469 215.238281 C 27.390625 210.089844 22.511719 201.503906 22.53125 191.761719 C 22.550781 186.882812 23.785156 182.273438 25.984375 178.242188 C 26.042969 178.144531 26.082031 178.066406 26.136719 177.96875 L 35.183594 161.613281 L 35.4375 161.148438 L 38.542969 155.535156 L 43.304688 146.914062 L 44.867188 144.097656 L 46.664062 140.875 L 47.972656 138.484375 L 53.53125 128.433594 L 56.636719 122.820312 L 62.964844 111.382812 L 66.070312 105.785156 L 79.476562 81.636719 L 79.515625 81.578125 L 82.675781 75.847656 L 82.851562 75.539062 L 89.21875 64.042969 L 91.105469 60.648438 L 92.417969 58.277344 L 99.921875 44.734375 C 99.921875 44.734375 99.921875 44.714844 99.941406 44.714844 C 100.019531 44.558594 100.117188 44.386719 100.210938 44.230469 C 100.25 44.175781 100.289062 44.097656 100.328125 44.039062 C 105.246094 35.472656 114.507812 29.726562 125.097656 29.746094 C 129.089844 29.765625 132.871094 30.574219 136.324219 32.058594 C 138.058594 32.792969 139.699219 33.71875 141.222656 34.78125 C 144.925781 37.328125 147.992188 40.742188 150.15625 44.695312 L 157.675781 58.277344 L 159.085938 60.820312 L 160.878906 64.042969 L 167.089844 75.269531 L 167.417969 75.847656 L 170.46875 81.347656 L 170.621094 81.617188 L 178.183594 95.273438 L 181.191406 100.714844 C 183.46875 100.773438 185.707031 100.964844 187.90625 101.273438 C 193.285156 102.042969 198.417969 103.589844 203.183594 105.785156 L 203.472656 105.785156 L 203.570312 105.960938 C 206.808594 107.484375 209.894531 109.296875 212.769531 111.382812 L 212.980469 111.382812 L 209.875 105.785156 L 207.753906 101.949219 L 183.527344 58.277344 L 180.324219 52.488281 L 173.785156 40.703125 L 170.582031 34.914062 L 170.5625 34.953125 C 170.351562 34.511719 170.121094 34.085938 169.886719 33.660156 C 169.792969 33.488281 169.695312 33.292969 169.597656 33.121094 C 165.703125 26.175781 160.203125 20.253906 153.605469 15.816406 C 153.144531 15.507812 152.679688 15.199219 152.199219 14.910156 C 150.617188 13.925781 148.976562 13.019531 147.300781 12.210938 C 143.886719 10.570312 140.238281 9.277344 136.4375 8.429688 C 134.164062 7.910156 131.828125 7.5625 129.4375 7.347656 C 127.953125 7.234375 126.464844 7.15625 124.960938 7.175781 C 123.496094 7.175781 122.046875 7.234375 120.621094 7.367188 C 118.230469 7.582031 115.894531 7.949219 113.597656 8.46875 C 107.347656 9.894531 101.542969 12.460938 96.410156 15.933594 C 89.292969 20.738281 83.449219 27.277344 79.496094 34.972656 L 79.476562 34.914062 L 76.273438 40.703125 L 69.734375 52.507812 L 66.550781 58.277344 L 40.238281 105.785156 L 37.132812 111.382812 L 30.804688 122.820312 L 27.699219 128.433594 L 22.144531 138.484375 L 19.019531 144.097656 L 12.691406 155.535156 L 9.585938 161.148438 L 6.480469 166.78125 C 6.367188 166.976562 6.269531 167.167969 6.152344 167.359375 C 2.46875 174.09375 0.269531 181.789062 0.0195312 189.949219 C 0 190.546875 0 191.164062 0 191.761719 C 0.0195312 197.609375 1.023438 203.242188 2.855469 208.46875 C 3.644531 210.726562 4.570312 212.90625 5.652344 214.988281 C 9.855469 223.1875 16.203125 230.09375 23.9375 234.972656 C 25.519531 235.976562 27.140625 236.882812 28.839844 237.691406 C 35.570312 240.972656 43.113281 242.804688 51.097656 242.84375 C 52.605469 242.84375 54.089844 242.785156 55.554688 242.667969 C 57.949219 242.476562 60.261719 242.109375 62.539062 241.609375 C 68.769531 240.21875 74.554688 237.691406 79.6875 234.238281 C 86.074219 229.957031 91.433594 224.246094 95.332031 217.574219 C 95.351562 217.535156 95.371094 217.496094 95.390625 217.457031 C 95.410156 217.4375 95.410156 217.417969 95.429688 217.398438 L 96.335938 215.78125 C 96.335938 215.761719 96.355469 215.761719 96.355469 215.742188 L 120.195312 172.648438 L 124.226562 165.355469 L 125.039062 163.90625 L 146.027344 201.773438 L 151.464844 211.613281 C 151.601562 211.691406 151.734375 211.765625 151.871094 211.824219 C 152.488281 213.289062 153.183594 214.699219 153.933594 216.089844 C 154.050781 216.300781 154.167969 216.511719 154.300781 216.722656 C 158.199219 223.628906 163.675781 229.550781 170.253906 233.96875 C 175.386719 237.421875 181.191406 239.96875 187.421875 241.378906 C 189.699219 241.898438 192.03125 242.265625 194.425781 242.457031 C 195.910156 242.59375 197.394531 242.652344 198.917969 242.652344 C 218.75 242.632812 235.898438 231.347656 244.367188 214.851562 C 245.449219 212.769531 246.375 210.589844 247.164062 208.332031 C 248.996094 203.085938 249.980469 197.453125 250 191.589844 C 250 190.992188 250 190.394531 249.980469 189.816406 Z M 198.917969 220.140625 C 188.078125 220.15625 178.644531 214.140625 173.824219 205.246094 L 171.855469 201.679688 L 164.949219 189.234375 L 163.675781 186.921875 L 156.828125 174.535156 L 153.472656 168.480469 L 149.402344 161.128906 L 139.507812 143.269531 C 138.5625 141.570312 138.5625 139.488281 139.507812 137.789062 L 142.746094 131.925781 C 143.941406 129.785156 146.199219 128.453125 148.648438 128.453125 L 181.210938 128.453125 C 190.644531 128.453125 199.34375 133.585938 203.914062 141.839844 L 205.167969 144.097656 L 205.941406 145.484375 L 206.65625 146.757812 L 211.515625 155.535156 L 213.734375 159.546875 L 214.621094 161.128906 L 214.777344 161.402344 L 221.855469 174.171875 L 223.976562 178.007812 C 226.175781 182.039062 227.449219 186.671875 227.46875 191.570312 C 227.566406 207.347656 214.679688 220.101562 198.917969 220.140625 Z M 198.917969 220.140625 "/>
</g>
</svg>
